config/expand/iconfont/module-menu/module-peihu.svg

<?xml version="1.0" encoding="UTF-8"?>
<svg width="21px" height="24px" viewBox="0 0 21 24" version="1.1" xmlns="http://www.w3.org/2000/svg" xmlns:xlink="http://www.w3.org/1999/xlink">
    <!-- Generator: Sketch 53 (72520) - https://sketchapp.com -->
    <title>peihu</title>
    <desc>Created with Sketch.</desc>
    <defs>
        <linearGradient x1="74.4268407%" y1="22.5314007%" x2="50%" y2="53.8101388%" id="linearGradient-1">
            <stop stop-color="#B7B7B7" offset="0%"></stop>
            <stop stop-color="#FFFFFF" offset="100%"></stop>
        </linearGradient>
        <linearGradient x1="14.3387761%" y1="50%" x2="100%" y2="50%" id="linearGradient-2">
            <stop stop-color="#B7B7B7" offset="0%"></stop>
            <stop stop-color="#FFFFFF" offset="100%"></stop>
        </linearGradient>
    </defs>
    <g id="Page-2" stroke="none" stroke-width="1" fill="none" fill-rule="evenodd">
        <g id="图标" transform="translate(-326.000000, -735.000000)">
            <g id="peihu" transform="translate(326.000000, 735.000000)">
                <path d="M20.398679,3.73671179 L19.6668734,3.62072463 C15.4305684,2.94945203 12.5917257,0.432236035 12.5630137,0.40682097 L12.4861235,0.337525558 C12.2145036,0.126063221 11.8721347,0 11.500102,0 C11.1026432,0 10.7417146,0.144843379 10.4634095,0.381945694 L10.4207607,0.421440255 C10.3574447,0.479130204 7.54096888,3.00358837 3.35229817,3.61807066 L2.5937068,3.72931218 C2.25190445,3.81947943 2,4.12738407 2,4.49300115 L2,9.64173346 C2,13.9426372 4.56896768,17.5536681 10.5885006,21.7133496 C10.8467276,21.8937066 11.1598179,22 11.500102,22 C11.8334969,22 12.1418057,21.8974851 12.3969734,21.7239879 L12.404633,21.71868 C18.4296953,17.5559847 21,13.9449313 21,9.64175595 L21,4.49300115 C21.0000227,4.12531488 20.7425888,3.82213339 20.398679,3.73671179 Z" id="Path" fill="url(#linearGradient-1)"></path>
                <polygon id="Path" fill="url(#linearGradient-2)" points="8.33321459 10 8.33321459 12.3333408 6 12.3333408 6 14.6668596 8.33321459 14.6668596 8.33321459 17 10.6667854 17 10.6667854 14.6668819 13 14.6668819 13 12.3333408 10.6667631 12.3333408 10.6667631 10"></polygon>
                <path d="M18.398679,6.56686125 L17.6668734,6.45614623 C13.4305684,5.81538603 10.5917257,3.41258894 10.5630137,3.38832911 L10.4861235,3.32218349 C10.2145036,3.12033307 9.87213467,3 9.50010198,3 C9.10264316,3 8.74171456,3.13825959 8.46340954,3.36458453 L8.42076073,3.40228388 C8.3574447,3.45735156 5.54096888,5.86706163 1.35229817,6.45361291 L0.593706802,6.55979799 C0.251904455,6.64586673 0,6.9397757 0,7.28877382 L0,12.2034728 C0,16.308881 2.56896768,19.7557741 8.58850064,23.7263791 C8.84672763,23.8985381 9.15981795,24 9.50010198,24 C9.83349693,24 10.1418057,23.9021448 10.3969734,23.7365339 L10.404633,23.7314672 C16.4296953,19.7579854 19,16.3110708 19,12.2034943 L19,7.28877382 C19.0000227,6.93780056 18.7425888,6.64840006 18.398679,6.56686125 Z M17,12.20137 C17,15.2138164 15.775562,17.8408154 9.47956153,22 C3.18374128,17.8408154 2,15.2138164 2,12.20137 L2,8.25421999 C6.77110355,7.58483498 9.47956153,5 9.47956153,5 C9.47956153,5 12.2781179,7.53830774 17,8.25421999 L17,12.20137 Z" id="Shape" fill="#333333" fill-rule="nonzero"></path>
            </g>
        </g>
    </g>
</svg>

<svg width="21" height="24" xmlns="http://www.w3.org/2000/svg"><defs><linearGradient x1="74.427%" y1="22.531%" x2="50%" y2="53.81%" id="a"><stop stop-color="#B7B7B7" offset="0%"/><stop stop-color="#FFF" offset="100%"/></linearGradient><linearGradient x1="14.339%" y1="50%" x2="100%" y2="50%" id="b"><stop stop-color="#B7B7B7" offset="0%"/><stop stop-color="#FFF" offset="100%"/></linearGradient></defs><g><path d="M20.399 3.737l-.732-.116C15.43 2.949 12.592.432 12.563.407l-.077-.07a1.6 1.6 0 00-2.023.045l-.042.04c-.064.057-2.88 2.582-7.069 3.196l-.758.111A.793.793 0 002 4.493v5.149c0 4.3 2.569 7.912 8.589 12.071a1.59 1.59 0 001.808.01l.008-.004C18.43 17.556 21 13.945 21 9.642V4.493a.783.783 0 00-.601-.756z"/><path d="M8.333 10v2.333H6v2.334h2.333V17h2.334v-2.333H13v-2.334h-2.333V10z"/><path d="M18.399 6.567l-.732-.11c-4.236-.642-7.075-3.044-7.104-3.069l-.077-.066A1.649 1.649 0 009.5 3c-.397 0-.758.138-1.037.365l-.042.037c-.064.055-2.88 2.465-7.069 3.052l-.758.106A.764.764 0 000 7.289v4.914c0 4.106 2.569 7.553 8.589 11.523.258.173.57.274.911.274.333 0 .642-.098.897-.263l.008-.006C16.43 19.758 19 16.311 19 12.203V7.29c0-.351-.257-.64-.601-.722zM17 12.2c0 3.013-1.224 5.64-7.52 9.799C3.184 17.84 2 15.214 2 12.201V8.254C6.771 7.584 9.48 5 9.48 5S12.278 7.538 17 8.254v3.947z"/></g></svg>
